X:156
T:Untitled. HA.155
M:C
L:1/8
Q:1/2=90
S:Henry Atkinson’s original MS,Hartburn,N’umberland,1694.
O:England
A:Hartburn,Northumberland
H:1/8
Z:vmp.Neil Brookes, Jan.2004
K:C
“_No Key Sig. in MS”gf|e2 (dc) G2 (cG)|E2C4 cd|\
e2(cd) e2 (cd)|e2g4 fg|
(ag)(ag) (ag)(ag)|agf>e d2 (ag)|e2 (dc) G2 (cd)|e2g4||
dc|B2 (gd) B2 (gd)|B2d4 cd|e2(cd) e2 (cd)|e2g4 fe|
f2F2 ABcA|g2G2 BcdB|a2A2 BABG|A2c4|]

